!!!OTL: Litanei von den heil. Aposteln, Martyrern und Beichtigern.
!!!ARE: Europa, Mitteleuropa, Deutschland
!!!SCT: A0606
!!!TXL: @@GMH, @@LAT
!!!YEM: Copyright 1995, estate of Helmut Schaffrath.
**kern	**text
*M4/2	*
*met(c|)	*
*clefC3	*
*k[b-]	*
*F:ion	*
!LO:TX:a:t=jon.	!
{2F	O
=1	=1
2F	lie-
2G	-ber
2A	Herr
2B-	ſanct
=2	=2
1c	Pe-
2c	-ter*),
2c	wir
=3	=3
2d	rů_fen
2c/	dich
2A	an
2B-	mit
=4	=4
1.c;}	fleis}
{2F	.
=5	=5
2F	Daß
2G	du
2A	wöl-
2B-	-leſt
=6	=6
1c	bit-
2c	-ten
2c	.
=7	=7
2d	Christ
2c/	von
2A	hi-
2B-	-mel-
=8	=8
0c;}	-reich:}
=9	=9
{1f	daß
1d	er
=10	=10
1e	vns
1c	ge-
=11	=11
2d	-ne-
2c	-dig
2A	wöl-
2B-	-le
=12	=12
0c}	ſein,}
=13	=13
{1f	und
1d	be-
=14	=14
1e	-hü-
1c	-ten
=15	=15
2d	vor
2c	der
2A	hel-
2B-	-le
=16	=16
0c}	pein.}
=17	=17
{2r	.
2c	Wir
2d	ſa-
2c	-gen
=18	=18
2A	im-
2B-	-mer
1c}	danck
=19	=19
{2r	.
2c	mit
2d	eng-
2c	-li-
=20	=20
2A	-ſchem
2B-	ge-
1c}	-ſang:}
=21	=21
{1f	San-
1d	-cte,
=22	=22
1e	san-
1c	-cte,
=23	=23
2d	san-
2c	-cte
2B-	do-
2A	-mi-
=24	=24
*lig	*
1G	-ne
1c	.
*Xlig	*
=25	=25
2A	Je-
2A	-su
1G	Chri-
=26	=26
1F;}	-ste!
{2A	Herr,
2A	er-
=27	=27
2A	-barm
2A	dich
2G	ü-
2G	-ber
=28	=28
1F	uns,
1A	Herr,
=29	=29
2B-	bis
2A	ge-
2G	-ne-
2G	-dig
=30	=30
0F/ll}	uns!
==	==
!!!GTL: Geistliche Volkslieder
!!!AGN: Romanze, Ballade, Lied, religioeses Lied
!! Haym v. Themar Schoene Christenliche Cath. Weinaecht... 1590 No. 17.
!!!ONB: ESAC (Essen Associative Code) Database: ALTDEU
!!!AMT: simple quadruple
!!!AIN: vox
!!!EED: Helmut Schaffrath
!!!EEV: 1.0
!!@@COMMENT: "...wo St. Peter *steht, in folgender Ordnung: Str. 2 Johannes. 3 Paule. 4 Jacobe. 5 Thoma. 6 Philippe. 7 Bartholomee. 8 Matthe. 9. Simon. 10 Matthia. 11 Lucas. 12 Sankt Marr (Markus). 13 Ulrich. 14. Simprecht. 15 Niclaֳ. 16 Vite. Es begint also Str. 2: O lieber sanct Johannes et. Alles Uebrige bleibt unverֳ₪ndert. 
!!@@END:
!!!RDF**kern: l = terminal long
!!!AMD: Ionian
!!!URL-scan: https://rosdok.uni-rostock.de/mcrviewer/recordIdentifier/rosdok_ppn738218359/iview2/phys_0788.iview2?x=201.48295004982492&y=1132.8918662816286&scale=0.7052832894250849&rotation=0&layout=singlePageLayout&logicalDiv=log_0021
!!!ENC: Anna Maria Matuszewska
!!!EEV: 2024/22/03
*-	*-
